material/.icons/material/vote.svg

<svg xmlns="http://www.w3.org/2000/svg" viewBox="0 0 24 24"><path d="M18 13h-.68l-2 2h1.91L19 17H5l1.78-2h2.05l-2-2H6l-3 3v4a2 2 0 002 2h14a2 2 0 002-2v-4l-3-3m-1-5.05l-4.95 4.95L8.5 9.36l4.96-4.95L17 7.95m-4.24-5.66L6.39 8.66a.996.996 0 000 1.41L11.34 15c.39.41 1.02.41 1.41 0l6.36-6.34a.996.996 0 000-1.41L14.16 2.3a.975.975 0 00-1.4-.01z"/></svg>

<?xml version="1.0" encoding="UTF-8"?><!DOCTYPE svg PUBLIC "-//W3C//DTD SVG 1.1//EN" "http://www.w3.org/Graphics/SVG/1.1/DTD/svg11.dtd"><svg xmlns="http://www.w3.org/2000/svg" xmlns:xlink="http://www.w3.org/1999/xlink" version="1.1" id="mdi-vote" width="24" height="24" viewBox="0 0 24 24"><path d="M18,13H17.32L15.32,15H17.23L19,17H5L6.78,15H8.83L6.83,13H6L3,16V20A2,2 0 0,0 5,22H19A2,2 0 0,0 21,20V16L18,13M17,7.95L12.05,12.9L8.5,9.36L13.46,4.41L17,7.95M12.76,2.29L6.39,8.66C6,9.05 6,9.68 6.39,10.07L11.34,15C11.73,15.41 12.36,15.41 12.75,15L19.11,8.66C19.5,8.27 19.5,7.64 19.11,7.25L14.16,2.3C13.78,1.9 13.15,1.9 12.76,2.29Z" /></svg>
